X:1
T:Alice, Where Art Thou?
T:Alice, Where Art Thou?
T:Joseph Ascher (1829-1869)
T:W. Guernsey
T:by Mutopia - Scritto con MuseScore, un software libero e gratuito: http://musescore.org/it
T:by Mutopia - Scritto con MuseScore, un software libero e gratuito: http://musescore.org/it
T:by Mutopia - Scritto con MuseScore, un software libero e gratuito: http://musescore.org/it
C:Joseph Ascher (1829-1869)
Z:W. Guernsey
Z:by Mutopia - Scritto con MuseScore, un software libero e gratuito: http://musescore.org/it
%%score 1 { ( 2 4 ) | 3 }
L:1/8
Q:1/4=90
M:3/4
K:Bb
V:1 treble nm="Voice"
V:2 treble nm="Piano"
V:4 treble 
V:3 bass 
V:1
"^Moderato" z | z6 | z6 | z6 | z6 | z6 | z6 | z6 | z4!p! z F | F2 B3 c | B2 A3- A | %11
w: ||||||||The|birds sleep\- ing|gent\- ly, *|
w: ||||||||The|sil\- ver rain|fal\- ling. *|
 G2{/A} G ^F G A | (G2 F2) z F | F2"^cresc." d3 e | d2 c3 G | B2"^dim." (A G) A F | B2 z2 z F | %17
w: Sweet Lu\- na gleam eth|bright, * Her|rays tinge the|for\- est, And|all seems * glad to-|night. The|
w: Just as it fall\- eth|now, _ And|all things slept|gent\- ly, Oh!|Al\- ice, * where art|thou? I've|
!mf! F2 B3 c | B2 A3 A | G2{/A} G ^F G A | (G2 =F3) F |"^cresc." F2 f2 (e d) | d2 c3 G | %23
w: wind sigh\- ing|by me, *|Cool\- ing my fev ered|brow; * The|stream flows as _|ev\- er, Yet|
w: sought thee by|lake\- let, I've|sought thee _ on the|hill; * And|in the pleasant *|wild\- wood When|
 B2"^dim." (A G) A F | B2 z2 z"^Animato" B |!f! B2 A3 D | A2 G3 G | d2 (c B) A G | (G ^F A3) D | %29
w: Al\- ice, * Where art|thou? One|year back this|e\- ven, And|thou wert * by my|side, _ _ One|
w: winds blow * cold and|chill. I've|sought thee in|for\- est, I'm|look\- ing heav'nward, * *|now. * * I've|
!p! B2 A3 D | A2 G3 G | (e d) (c B) c ^c | d2 z2 z2 |!pp! (=F2 B3 c) | (B2 A4) | %35
w: year back this|e\- ven, And|thou * wert * by my|side.|~(hum) _ _|_ _|
w: sought thee in|for\- est, I'm|look\-- * ing heav'n * ward|now.|(hum) _ _|_ _|
!p! G2 (G ^F) (G A) | G2 F2 z d |!f! d2 c3 =B | (=B c) G3 c | c2 (!^!B !^!A) !^!G !^!F | f6 | %41
w: Vow\- ing * to _|love me; One|year past this|e\- * ven And|thou wert * by my|side,|
w: Oh! there * 'mid the|star\- shine; I've|sought thee in|for\- * est I'm|look\- ing * heav'ward heav'nward|now,|
!p!"^dim." (G3 A) B c | F3 G A B | d4 z F |"^rit." c4 z F |"^a tempo" B z z2 z!D.C.! |] %46
w: Vow\- * ing to|love me, Al ice,|What e'er|might be\-|tide!|
w: Oh! _ there a\-|mid the star\- shine|Alice I|know, art|thou!|
V:2
!p! F | (F2 B3 c | B2 A4) | (G2 G^F GA | G2 =F3 [Ff]) | [Ff]2 ([dd']3 [ee']) | %6
 [dd']2 ([cc']3 [Bb]) | [Bb]2 ([Aa][Gg][Aa][Ff]) | [Bb]2 z2 z F | (F2 B3 c | B2 A4) | %11
 (G2{/A} G^FGA) | G2 F2 z F |"_cresc." (F2 d3 e | d2 c3) (G | B2"_dim." AGAF) | [DB]3 z2 F | (d6 | %18
 e6) | (=e6 | f6) |"_cresc." (F2 f2 ed) | (d2 c3) G | (B2"_dim." AGAF) | B2 z2 z B |!f! (B2 A3 D) | %26
 (A2 G3) G | [Dd]2 ([Ec][DB][CA][B,G]) | (G^F A2) z D |!p! d6 | d6 | ([^Fe][Gd][Ac]B[Ac][G^c]) | %32
 [^Fd][Dd][Dd]!^![Dd]!^![Ed]!^![=Ed] |!p! d6 | (e6 | e4) e2 | ([Ge]2 [Fd]2 z d | %37
!f! ([Fd]2 [Fc]3 [F=B]) | ([E=B]c) G3 c) | ([Ec]2 !^!B!^!A!^!G!^!F) | [Ff]6 |!p! (G3 ABc) | %42
 (F3 GAB) | [FBd]4 z F | [EAc]4 z F | [DFB] z [dfb]2 z |] %46
V:3
 z | (B,,F,B,F,B,F,) | (B,,F,A,F,A,F,) | (B,,E,B,E,B,E,) | (B,,F,B,F,B,F,) | %5
 (G,,D,[F,=B,]D,[F,B,]D,) | (C,G,[CE]G,[CE]G,) |"^dim." (F,,C,[E,A,]C,[E,A,]C,) | %8
"^a tempo" (B,,F,[B,D]F,[B,D]F,) | (B,,F,B,F,B,F,) | (B,,F,A,F,A,F,) | (E,,E,B,E,B,E,) | %12
 (B,,F,B,F,B,F,) |"_cresc." (G,,D,[F,=B,]D,[F,B,]D,) | (C,G,CG,CG,) | (F,,C,[F,A,]C,[F,A,]C,) | %16
 (B,,F,[B,D]F,[B,D]F,) |!mf! (B,,F,B,F,B,F,) | (C,F,A,F,A,F,) | (_D,=E,[B,^C]E,[B,C]E,) | %20
 (D,F,[B,D]F,[B,D]F,) | (G,,G,=B,G,B,G,) | (C,G,CG,CG,) | (F,,F,A,F,A,F,) | (B,,F,[B,D]F,[B,D]F,) | %25
"^Animato" (D,,D,^F,D,F,D,) | (D,,D,[G,B,]D,[G,B,]D,) | (D,,D,[G,B,]D,[G,B,]D,) | %28
 (D,,D,[^F,C]D,[F,C]D,) | (D,,D,[^F,C]D,[F,C]D,) | (D,,D,[G,B,]D,[G,B,]D,) | %31
 (D,,D,[G,B,]D,[G,B,]D,) | [D,^F,A,]2"^rit." z2 z2 | (B,,F,[B,D]F,[B,D]F,) | %34
 (F,,F,[A,E]F,[A,E]F,) | (F,,F,[A,E]F,[A,E]F,) | (B,,F,[B,D]F,[B,D]F,) | %37
 =B,,[G,D][G,D][G,D][G,D][G,D] | C,[G,C][G,C][G,C][G,C][G,C] | F,,[F,A,][F,A,][F,A,][F,A,][F,A,] | %40
 B,,[F,B,D][F,B,D][F,B,D][F,B,D][F,B,D] | (E,G,B,G,B,G,) | (B,,F,B,F,B,F,) | F,4 z z | %44
"^rit." [F,,F,]4 z2 |"^a tempo" B,, z [B,,,B,,]2 z |] %46
V:4
 x | D6 | E6 | E6 | D6 | x6 | x6 | x6 | x6 | D6 | E6 | E6 | D6 | F6 | E6 | E6 | x6 | F2 B3 c | %18
 B2 A3 A | G2{/A} (G^F)GA | (G2 F3) F | F6 | E6 | E6 | D2 x4 | C6 | D6 | x6 | x6 | (B3 A2 D) | %30
 (A2 G3 G) | x6 | x6 | (F2 B3 c) | B2 A3- A | G2 (G^F)(GA) | x6 | x6 | x6 | x2 E4 | x6 | E6 | E6 | %43
 x6 | x6 | x5 |] %46

